X: 7
T: The Mist On The Mountain
R: waltz
M: 3/4
L: 1/8
K: Bmin
B3 B3 | f2f f>ec | A3 A3| c>Bc B>AB| d3 e3| f>ga c>BA| B>cf e>dc| B3 B3||f3 f3| e>fa f>ec| A2A e2c| f2f e>dc| B3 d3| e>fa c>BA| B>cf e>dc|B3 B3||


Tune 470	Setting 28312

